X:1
T:Dear, if you wish - Bateson
T:James Gibb editions
T:#
%%score 1 2 { 3 | 4 } 5
L:1/8
Q:1/4=108
M:4/4
K:Bb
V:1 treble nm="Soprano I"
V:2 treble nm="Soprano II"
V:3 treble nm="Alto I" snm="A"
V:4 treble 
V:5 treble-8 nm="Tenor" snm="T"
V:1
"^Dear, if you wish""^Thomas Bateson\n (1575-1630)" z4!p! d4- | d2 AB c4- | c2 GA B2 G2 | %3
w: Dear,|* if you wish,|* if you wish my|
[M:4/4] d4 d4 | z4 _B4- | B2 FG A2 F2 | G8 | ^F4 d4- | d2 AB c4- | c2 B2 A4 | G8 | z2!mf! c2 A3 G | %12
w: dy- ng,|dear,|* if you wish my|dy-|ing, dear,|* if you wish|* my dy-|ing,|In vain your|
 F2 F2 B4- | B4 z4 | z2 A2 G4 | ^F2 (G4 F2) | G8 | z2!p! G2 B2 c2 | d6 c2 | B2 A2 A2 A2 | A4 z4 | %21
w: wish re- dounds,||in vain|your pray\- *|er.|For can he|die that|breathes not vi- tal|air,|
 z8 | z4 z2 G2 | G2 ^F2 G2 B2 | A3 G =F2 D2 | =E4 z2 D2 | B4 A4 | A4 A4 | A4!mf! d2 dd | c2 A2 B4 | %30
w: |that|breathes not vi- tal|air, not vi- tal|air, that|breathes not|vi- tal|air? Then with those|eyes that slew|
 A4 z4 | z8 | z8 | z4 d2 dd | c2 A2 B4 | A4 z2 d2 | c2 B2 e4 | d2 B2 A4 | G4 z4 | z2 G2 ^F4 | %40
w: me,|||then with those|eyes that slew|me, New|life in- fus-|ing, re- new|me,|re- new|
 G2 B2 A4 | =B2 d2 d4 | =B2 G2 ^F4 | G8 |!p! d8 | A2 B2 c4- | c4 B4 | A8 | z2!f! d2 d2 d2 | %49
w: me, re- new|me, re- new|me, re- new|me;|So|shall we both|* ob-|tain|our wish- ed|
 (cBAB c2) A2 | z2 A2 A2 A2 | (BAGA BA G2 | ^F4) F4 | z8 | z4 z2 B2 | A2 F2 (BABc | d4) d4 | z8 | %58
w: plea\- * * * * sure,|our wish- ed|plea\- * * * * * *|* sure,||You|my death joy\- * * *|* ing,||
 z2!p! A2 B3 A | G2 B2 A4 | G4 z4 | z4 z2 D2 | D3 =E ^F2 G2 | G2 G2 z2 G2 | ^F3 G A2 F2 | %65
w: and I my|life's sweet trea-|sure,|and|I my life's sweet|trea- sure, and|I my life's sweet|
 G4 D2 z2 | z8 | z8 | z2"^cresc." d2 B3 c | d4 e4 |[Q:1/4=105] d8 |[Q:1/4=101] d4[Q:1/4=98] d4 | %72
w: trea- sure,|||and I my|life's sweet|trea-|sure, sweet|
[Q:1/4=94] d8 |[Q:1/4=92] d16 |] %74
w: trea-|sure.|
V:2
!p! =B6 FG | A6 A2 | G4 G4 |[M:4/4] z2 B2 A4 | =B4 z4 | d6 AB | c2 GA B2 (AG) | (A6 G2) | ^F4 z4 | %9
w: Dear, if you|wish my|dy- ing,|my dy-|ing,|dear, if you|wish my dy- ing, my *|dy\- *|ing,|
 z8 | z2!mf! d2 B3 A | G2 G2 F4 | z4 z2 d2 | f3 =e d2 c2 | A3 B c4- | c2 B2 A4 | =B2!p! G2 _B2 c2 | %17
w: |In vain your|wish re- dounds,|in|vain your wish re-|dounds, in vain|* your pray-|er. For can he|
 d2 d2 D3 =E | F2 F2 G4 | z4 z2 =E2 | F4 G4 | A4 z2 G2 | G2 ^F2 G2 B2 | A4 z4 | z4 z2 A2 | %25
w: die that breathes not|vi- tal air,|for|can he|die, that|breathes not vi- tal|air,|that|
 A3 G F2 D2- | D2 =E3 E (D2- | D2 ^C=B, C2) C2 | D8 | z8 |!mf! d2 dd c2 A2 | B4 A4 | z8 | %33
w: breathes not vi- tal|* air, not vi\-|* * * * tal|air?||Then with those eyes that|slew me,||
 z4 B2 BB | A4 D2 G2 | ^F6 D2 | =E=F (G3 FGA) | B2 d2 d4 | d2 B2 B2 A2 | B4 A4 | z2 G2 ^F4 | %41
w: then with those|eyes that slew|me, New|life in- fus\- * * *|ing, re- new|me, new life in-|fus- ing,|re- new|
 G2 B2 A4 | G2 d2 d4 | d8 | z4!p! B4 | F2 G2 A4- | A4 G4 | ^F8 | z2!f! B2 B2 B2 | (AGFG A2) F2 | %50
w: me, re- new|me, re- new|me;|So|shall we both|* ob-|tain|our wish- ed|plea\- * * * * sure,|
 z2 d2 d2 d2 | (dcBc dc B2 | A4) A4 | z2 d2 c2 A2 | (BAGA BABc) | d4 z4 | z4 z2!p! A2 | %57
w: our wish- ed|plea\- * * * * * *|* sure,|You my death|joy\- * * * * * * *|ing,|and|
 B3 A G2 B2 | A4 G2 D2 | D3 =E ^F2 F2 | G4 A2 B2 | B2 A2 B4- | B2 B2 A4 | G4 z4 | z4 d4 | %65
w: I my life's sweet|trea- sure, and|I my life's sweet|trea- sure, and|I my life's|* sweet trea-|sure,|and|
 B3 c d2 e2 | d8 | d8 | z8 | z4"^cresc." G4 | ^F3 G A2 B2 | (A4 G4- | G4 ^F4) | G16 |] %74
w: I my life's sweet|trea-|sure,||and|I my life's sweet|trea\- *||sure,|
V:3
!p! G6 D=E | F2 D2 =E2 E2 | z4 GA B2 |[M:4/4] G2 (G4 ^F2) | G8 | z8 | z8 | z8 | z4 A4 | %9
w: Dear, if you|wish my dy- ing,|if you wish|my dy\- *|ing,||||dear,|
 =EF G4 ^F2 | G4 G4 | z8 | z4 z2!mf! F2 | D3 C B,2 (A,G,) | F,4 G,4 | A,2 (B,C) D4 | D8 | z8 | %18
w: if you wish my|dy- ing,||in|vain your wish re\- *|dounds, in|vain your * pray-|er.||
 z4 z2!p! G2 | F4 =E4 | D4 z2 G2 | G2 ^F2 G2 B2 | A4 D2 D2 | D8 | z4 z2 D2 | D2 ^C2 D2 F2 | %26
w: For|can he|die that|breathes not vi- tal|air, vi- tal|air,|that|breathes not vi- tal|
 =EF G4 F2 | (=E2 D2) E4 | D4!mf! D2 DD | =E2 ^F2 G4 | ^F4 z4 | z8 | G2 GG F2 D2 | E4 D2 G2 | %34
w: air, that breathes not|vi\- * tal|air? Then with those|eyes that slew|me,||then with those eyes that|slew me, that|
 (G2 ^F2) G4 | z8 | z8 | z2 G2 ^F4 | G4 z4 | z8 | z8 | z2 G2 ^F4 | G2 B2 A4 | =B4 z2!p! G2 | %44
w: slew * me,|||re- new|me,|||re- new|me, re- new|me; So|
 D2 =E2 F4- | F4 =E4 | D8- | D8 | z2!f! F2 F2 F2 | F4 F4 | z2 F2 F2 F2 | G4 G4 | z8 | D4 =E2 ^F2 | %54
w: shall we both|* ob-|tain||our wish- ed|plea- sure,|our wish- ed|plea- sure,||You my death|
 G4 G4 | D2 D2 G,4 | D8 | z2!p! D2 D3 =E | ^F2 F2 G4 | G4 z4 | z8 | z2 =F2 D3 C | B,3 C D4 | %63
w: joy- ing,|my death joy-|ing,|and I my|life's sweet trea-|sure,||and I my|life's sweet trea-|
 D4 z2 C2 | A,3 G, ^F,2 A,2 | B,2 G,4 G2 | ^F3 G A3 B | (A3 G) ^F3 G | A4 D4- | D4 z4 | %70
w: sure, and|I my life's sweet|trea- sure, and|I my life's sweet|trea\- * sure, sweet|trea- sure,||
 z2"^cresc." A2 D3 =E | ^F4 G4 | (A2 B2 A4) | G16 |] %74
w: and I my|life's sweet|trea\- * *|sure.|
V:4
 z8 |!p! D4 A,B,CD | (E4 D4) |[M:4/4] D8 | D6 B,C | D4 D4 | G,8 | D8 | z8 | z8 | z4 z2!mf! G2 | %11
w: |Dear, if you wish my|dy\- *|ing,|dear, if you|wish my|dy-|ing,|||In|
 E3 D C2 C2 | D2 A,2 B,3 C | D3 =E F3 E | D4 z2 C2 | A,2 G,2 A,4 | G,8 | z8 | z2!p! A,2 B,2 C2 | %19
w: vain your wish re-|dounds, in vain your|wish re- dounds, re-|dounds, in|vain your pray-|er.||For can he|
 D6 ^C2 | D2 A,2 G,2 B,2 | A,4 z4 | z8 | z4 z2 D2 | D2 ^C2 D2 F2 | =E2 A,2 D3 C | B,4 (^C2 D2) | %27
w: die that|breathes not vi- tal|air,||that|breathes not vi- tal|air, that breathes not|vi- tal *|
 =E2 (FG) (AG) E2 | ^F8 | z8 | D2 DD =E2 ^F2 | G2 D4 z2 | z8 | z8 | C2 CC B,2 G,2 | D4 D4 | z8 | %37
w: air, not * vi\- * tal|air?||Then with those eyes that|slew me,|||then with those eyes that|slew me,||
 z4 z2 D2 | (G,A,) B,2 C4 | D2 D2 D4 | D2 G,2 D,4 | G,4 z2 D2 | D4 D4 | z8 | z4!p! D4 | C6 B,2 | %46
w: New|life * in- fus-|ing, re- new|me, re- new|me, re-|new me;||So|shall we|
 A,4 (B,2 C2) | D8 | z2!f! D2 D2 D2 | A,4 A,4 | z2 A,2 A,2 A,2 | (G,A, B,3 C D2) | D8 | z8 | %54
w: both ob\- *|tain|our wish- ed|plea- sure|our wish- ed|plea\- * * * *|sure,||
 z2 D2 B,2 G,2 | (A,2 B,4 G,2) | A,8 | z8 | z2!p! D2 G,3 A, | B,2 G,2 D4 | G,4 z4 | z8 | z4 z2 D2 | %63
w: You my death|joy\- * *|ing,||and I my|life's sweet trea-|sure,||and|
 B,3 C D2 E2 | D4 D4 | z8 | z2 A,2 ^F,3 G, | A,2 B,2 A,2 D2- | D2 D,2 G,3 A, | B,2 B,2 (C3 B,) | %70
w: I my life's sweet|trea- sure,||and I my|life's sweet trea- sure,|* and I my|life's sweet trea\- *|
 A,3"^cresc." B, A,2 G,2 | D8- | D8 | D16 |] %74
w: sure, my life's sweet|trea\-||sure.|
V:5
 z8 | z4!p! A4 | z2 EF G4 |[M:4/4][K:treble-8] GABG A4 | G8 | z8 | z8 | z8 | d4 z2 AB | c2 G2 d4 | %10
w: |Dear,|if you wish|if you wish my dy-|ing,||||dear, if you|wish my dy-|
 G4 G4 | G4 A4 | z2 f2 d3 c | B3 c d3 =e | f4 c4 | d4 d4- | d2!p! G2 G2 A2 | B2 B2 B2 (AG) | %18
w: ing, my|dy- ing,|In vain your|wish re- dounds, in|vain your|pray- er.|* For can he|die that breathes not *|
 A3 A G4 | z2 A2 A3 G | F3 =E D4 | z4 z2 G2 | d3 c B2 G2 | A4 z2 G2 | F2 =E2 D4 | A4 D2 D2 | %26
w: vi- tal air,|that breathes not|vi- tal air,|that|breathes not vi- tal|air, that|breathes not vi-|tal air, that|
 (G3 F =E2) F2 | A4 A4 | A8 | z8 | z8 | z4!mf! d2 dd | c2 G2 (A2 B2- | B2 A2) B4 | z8 | z4 z2 B2 | %36
w: breathes * * not|vi- tal|air?|||Then with those|eyes that slew *|* * me,||New|
 A2 G2 c4 | B2 G2 d4 | d4 z4 | z2 G2 A4 | =B2 d2 d4 | d2 G2 D4 | G2 G2 (A2 d2) | d8 | %44
w: life in- fus-|ing, re- new|me,|re- new|me, re- new|me, re- new|me, re- new *|me;|
 z2!p! B2 F2 G2 | A4 =E4 | ^F4 G4 | A8 | z2!f! B2 B2 B2 | c4 c4 | z2 d2 d2 d2 | d4 d4 | z8 | %53
w: So shall I|both ob-|tain, ob-|tain|our wish- ed|plea- sure,|our wish- ed|plea- sure,||
 z2 B2 c2 d2 | (GABc dcd=e | f4 g4) | ^f4 z2!p! d2 | G3 A B2 G2 | d4 d4 | z8 | z2 B2 e3 d | %61
w: You my death|joy\- * * * * * * *||ing, and|I my life's sweet|trea- sure,||and I my|
 c2 c2 B4 | G4 z4 | z8 | z4 z2 d2 | G3 A B2 c2 | d4 d2 D2 | ^F3 G A2 B2 | A4 B4 | z8 | %70
w: life's sweet trea-|sure,||and|I my life's sweet|trea- sure, and|I my life's sweet|trea- sure,||
 z2"^cresc." A2 ^F3 G | A4 B4 | (A2 G2 A4) | =B16 |] %74
w: and I my|life's sweet|trea\- * *|sure.|

